alura/assets/api/cursos/python-ambientes-virtuais.svg

<svg xmlns="http://www.w3.org/2000/svg" id="Layer_1" x="0" y="0" version="1.1" viewBox="0 0 50 50" xml:space="preserve"><style>.st3{fill:#444}</style><path fill="#b9d7d9" d="M25 1.2c-11.5 0-21.1 8.1-23.3 19l38-13.8c-4-3.3-9.1-5.2-14.7-5.2z"/><path fill="#a6c1c2" d="M48.8 25c0-7.6-3.6-14.3-9.1-18.7l-38 13.8c-.3 1.6-.5 3.2-.5 4.8 0 7 3.1 13.4 7.9 17.7l39.5-14.4c.1-.9.2-2.1.2-3.2z"/><path d="M25 24c2.6 0 4.7-2 4.8-4.6v-.2c0-2.6-2.2-4.8-4.8-4.8-2.6 0-4.8 2.1-4.8 4.7H24c.2 0 .3.1.3.3s-.1.3-.3.3h-4.9c-2.4.3-4.3 2.3-4.3 4.8s1.9 4.5 4.4 4.8c.2-2.9 2.7-5.3 5.8-5.3zm-1.2-6.2c-.5 0-.9-.4-.9-.9s.4-.9.9-.9.9.4.9.9-.4.9-.9.9z" class="st3"/><path d="M30.9 19.8c-.3 3-2.8 5.4-5.9 5.4-2.6 0-4.7 2-4.8 4.6v.2c0 2.7 2.2 4.8 4.8 4.8 2.6 0 4.8-2.1 4.8-4.7H26c-.2 0-.3-.1-.3-.3 0-.2.1-.3.3-.3h4.6c2.5-.1 4.6-2.2 4.6-4.8 0-2.6-1.9-4.7-4.3-4.9zm-4.7 11.7c.5 0 .9.4.9.9s-.4.9-.9.9-.9-.4-.9-.9c0-.6.4-.9.9-.9z" class="st3"/><path d="M25 .7C11.6.7.7 11.6.7 25S11.6 49.3 25 49.3 49.3 38.4 49.3 25 38.4.7 25 .7zm0 46.1c-1.4 0-2.8-.1-4.2-.4-2.9-1.6-5.3-4.9-7-9.1C17.2 38.4 21 39 25 39s7.8-.6 11.1-1.7c-1.6 4.2-4.1 7.5-7 9.1-1.3.3-2.7.4-4.1.4zm0-8.7c-4.2 0-8.2-.7-11.6-1.9-1.1-3.3-1.8-7.1-1.8-11.2 0-4.3.7-8.3 2-11.7 3.3-1.2 7.2-1.8 11.4-1.8 4.1 0 8 .7 11.4 1.8 1.2 3.4 2 7.4 2 11.7 0 4.1-.6 7.9-1.8 11.2-3.4 1.2-7.4 1.9-11.6 1.9zM3.2 25c0-1.6.2-3.1.5-4.6 1.6-2.8 4.7-5.2 8.8-6.8-1.1 3.4-1.8 7.2-1.8 11.3 0 3.9.6 7.5 1.6 10.7-4.1-1.7-7.2-4.1-8.8-6.9-.2-1.1-.3-2.4-.3-3.7zM25 3.2c1.4 0 2.8.1 4.2.4 2.8 1.5 5.1 4.6 6.7 8.5-3.3-1-7-1.6-10.9-1.6-3.9 0-7.6.6-10.9 1.6 1.6-3.9 4-7 6.7-8.5 1.4-.3 2.8-.4 4.2-.4zM39.3 25c0-4.1-.6-8-1.8-11.3 4.1 1.6 7.2 4 8.8 6.8.3 1.5.5 3 .5 4.6 0 1.3-.1 2.6-.3 3.8-1.5 2.8-4.7 5.3-8.8 6.9 1-3.3 1.6-6.9 1.6-10.8zm6.3-7.1c-2-2.2-5-4.1-8.5-5.4-1.3-3.5-3.2-6.3-5.4-8.3 6.5 2.2 11.7 7.2 13.9 13.7zM18.3 4.2c-2.2 1.9-4 4.8-5.4 8.3-3.6 1.3-6.5 3.2-8.5 5.4 2.2-6.5 7.4-11.5 13.9-13.7zM4.1 31.3c2 2.3 4.9 4.2 8.6 5.6 1.3 3.7 3.3 6.8 5.6 8.8-6.8-2.1-12.1-7.6-14.2-14.4zm27.6 14.5c2.3-2 4.3-5.1 5.6-8.8 3.6-1.4 6.6-3.3 8.6-5.6-2.1 6.7-7.4 12.2-14.2 14.4z" class="st3"/></svg>

<?xml version="1.0" encoding="utf-8"?>
<!-- Generator: Adobe Illustrator 24.0.0, SVG Export Plug-In . SVG Version: 6.00 Build 0)  -->
<svg version="1.1" id="Layer_1" xmlns="http://www.w3.org/2000/svg" xmlns:xlink="http://www.w3.org/1999/xlink" x="0px" y="0px"
	 viewBox="0 0 50 50" style="enable-background:new 0 0 50 50;" xml:space="preserve">
<style type="text/css">
	.st0{fill:#A7ACB0;}
	.st1{fill:#B9D7D9;}
	.st2{fill:#A6C1C2;}
	.st3{fill:#444444;}
</style>
<g>
	<polygon class="st0" points="-0.4,14.2 -0.4,14.2 -0.4,14.2 	"/>
</g>
<g>
	<g>
		<path class="st1" d="M25,1.2c-11.5,0-21.1,8.1-23.3,19l38-13.8C35.7,3.1,30.6,1.2,25,1.2z"/>
	</g>
	<g>
		<path class="st2" d="M48.8,25c0-7.6-3.6-14.3-9.1-18.7l-38,13.8c-0.3,1.6-0.5,3.2-0.5,4.8c0,7,3.1,13.4,7.9,17.7l39.5-14.4
			C48.7,27.3,48.8,26.1,48.8,25z"/>
	</g>
	<g>
		<g>
			<path class="st3" d="M25,24c2.6,0,4.7-2,4.8-4.6v-0.2c0-2.6-2.2-4.8-4.8-4.8c-2.6,0-4.8,2.1-4.8,4.7h3.8c0.2,0,0.3,0.1,0.3,0.3
				s-0.1,0.3-0.3,0.3h-4.8h-0.1c-2.4,0.3-4.3,2.3-4.3,4.8c0,2.5,1.9,4.5,4.4,4.8C19.4,26.4,21.9,24,25,24z M23.8,17.8
				c-0.5,0-0.9-0.4-0.9-0.9c0-0.5,0.4-0.9,0.9-0.9s0.9,0.4,0.9,0.9C24.7,17.4,24.3,17.8,23.8,17.8z"/>
		</g>
		<g>
			<path class="st3" d="M30.9,19.8c-0.3,3-2.8,5.4-5.9,5.4c-2.6,0-4.7,2-4.8,4.6V30c0,2.7,2.2,4.8,4.8,4.8c2.6,0,4.8-2.1,4.8-4.7
				h-3.8c-0.2,0-0.3-0.1-0.3-0.3c0-0.2,0.1-0.3,0.3-0.3h4.6c2.5-0.1,4.6-2.2,4.6-4.8C35.2,22.1,33.3,20,30.9,19.8z M26.2,31.5
				c0.5,0,0.9,0.4,0.9,0.9c0,0.5-0.4,0.9-0.9,0.9s-0.9-0.4-0.9-0.9C25.3,31.8,25.7,31.5,26.2,31.5z"/>
		</g>
	</g>
	<path class="st3" d="M25,0.7C11.6,0.7,0.7,11.6,0.7,25c0,13.4,10.9,24.3,24.3,24.3c13.4,0,24.3-10.9,24.3-24.3
		C49.3,11.6,38.4,0.7,25,0.7z M25,46.8c-1.4,0-2.8-0.1-4.2-0.4c-2.9-1.6-5.3-4.9-7-9.1C17.2,38.4,21,39,25,39s7.8-0.6,11.1-1.7
		c-1.6,4.2-4.1,7.5-7,9.1C27.8,46.7,26.4,46.8,25,46.8z M25,38.1c-4.2,0-8.2-0.7-11.6-1.9c-1.1-3.3-1.8-7.1-1.8-11.2
		c0-4.3,0.7-8.3,2-11.7c3.3-1.2,7.2-1.8,11.4-1.8c4.1,0,8,0.7,11.4,1.8c1.2,3.4,2,7.4,2,11.7c0,4.1-0.6,7.9-1.8,11.2
		C33.2,37.4,29.2,38.1,25,38.1z M3.2,25c0-1.6,0.2-3.1,0.5-4.6c1.6-2.8,4.7-5.2,8.8-6.8c-1.1,3.4-1.8,7.2-1.8,11.3
		c0,3.9,0.6,7.5,1.6,10.7c-4.1-1.7-7.2-4.1-8.8-6.9C3.3,27.6,3.2,26.3,3.2,25z M25,3.2c1.4,0,2.8,0.1,4.2,0.4
		c2.8,1.5,5.1,4.6,6.7,8.5c-3.3-1-7-1.6-10.9-1.6c-3.9,0-7.6,0.6-10.9,1.6c1.6-3.9,4-7,6.7-8.5C22.2,3.3,23.6,3.2,25,3.2z M39.3,25
		c0-4.1-0.6-8-1.8-11.3c4.1,1.6,7.2,4,8.8,6.8c0.3,1.5,0.5,3,0.5,4.6c0,1.3-0.1,2.6-0.3,3.8c-1.5,2.8-4.7,5.3-8.8,6.9
		C38.7,32.5,39.3,28.9,39.3,25z M45.6,17.9c-2-2.2-5-4.1-8.5-5.4c-1.3-3.5-3.2-6.3-5.4-8.3C38.2,6.4,43.4,11.4,45.6,17.9z M18.3,4.2
		c-2.2,1.9-4,4.8-5.4,8.3c-3.6,1.3-6.5,3.2-8.5,5.4C6.6,11.4,11.8,6.4,18.3,4.2z M4.1,31.3c2,2.3,4.9,4.2,8.6,5.6
		c1.3,3.7,3.3,6.8,5.6,8.8C11.5,43.6,6.2,38.1,4.1,31.3z M31.7,45.8c2.3-2,4.3-5.1,5.6-8.8c3.6-1.4,6.6-3.3,8.6-5.6
		C43.8,38.1,38.5,43.6,31.7,45.8z"/>
</g>
</svg>
